X:1
T:Message of Mercy
T:Message of Mercy
T:Thoro Harris
T:Thoro Harris, 1913
T:Public Domain Courtesy of the Cyber Hymnal™
T:Public Domain Courtesy of the Cyber Hymnal™
C:Thoro Harris
Z:Public Domain
Z:Courtesy of the Cyber Hymnal™
%%score ( 1 2 ) ( 3 4 )
L:1/8
Q:1/4=92
M:6/8
K:F
V:1 treble 
V:2 treble 
V:3 bass 
V:4 bass 
V:1
 [Ac][GB][FA] (BA)[B,G] | [B,F]3 C3 | [Fc][F=B][Fc] [^Fd]2 [FA] | [GB]3- [GB]2 z | %4
w: 1.~Come to the ark * of|re- fuge,|Come to the place of|rest; *|
w: 2.~Come to the heart * that|loves thee,|Come to the soul’s true|home, *|
w: 3.~Come to the soul’s * sure|re- fuge;|When breaks the world’s fierce|blast, *|
 [GB][^FA][GB] ([EG][ce])[Bd] | [^Gd]3 [Ac]3 | [F=B][FA][FG] [FA]2 [FB] | [Ec]3- [Ec]2 z | %8
w: Safe in this qui- * et|har- bor,|Naught can thy peace mo-|lest; *|
w: Come while the Lord * in-|vites thee,|Come while there yet is|room; *|
w: He will pro- tect * His|child- ren|Till all is o- ver-|past; *|
 [EG][^D^F][EG] [EB]2 [EA] | [CG]3 [CF]3 | [FA][F^G][FA] [^Fc]2 [FA] | [GB]3- [GB]2 z | %12
w: Come with thy guilt to|Je- sus,|Wea- ry and sore dis-|tressed; *|
w: Tell Him thy ev- ery|sor- row,|Naught from this Friend with-|hold; *|
w: When storms with- out are|rag- ing|Rest and be not a-|fraid; *|
 [EG][Ge][ce] e2 x | [CA][Fd][Bd] d2 x | [D=B][FB][Ec] [Ge]2 [Fd] | %15
w: List to His plea,|“Come un- to Me,|And I will give you|
w: He’ll hear thy prayer,|thy bur- den bear,|Trust in His love un-|
w: Look to the Lord,|hope in His word,|Trust, and be un- dis-|
 c3- ([EG][FA][GBc][FA]!fermata![CG]) ||"^Refrain" [A,F]3 [B,E][B,C]>[B,G] | F3 A3 | %18
w: rest.” * * * * *|||
w: told. O * * * *|* mes- sage of|mer- cy!|
w: mayed. * * * * *|||
 [DB]3 [Dd][DF]>[_DG] | [CA]3- [CA]2 z | [=B,FG]3 [B,FG][CFA][DF=B] | ([Ec]2 [Fd]) e3 | %22
w: ||||
w: Un- bound- ed, un-|known! *|He died to re-|deem * thee;|
w: ||||
 [Ae][Ad]A [Gc]2 [F=B] | [Ed]4 z2 | [A,F]3 [B,E][B,C]>[B,G] | [A,F]3 [CA]3 | %26
w: ||||
w: O make Him now thine|own!|By faith in His|mer- cy,|
w: ||||
 [CA]3 [D^G][DE]>[D=B] | [CA]3- [CA]2 z | [^FA]3 [Fd][Fc][FA] | [Ac]3 [GB]3 | %30
w: ||||
w: By trust in His|grace; *|With saints in His|king- dom,|
w: ||||
 [EA][EB]D [CA]2 [B,G] | [A,CF]3- [A,CF]2 z |] %32
w: ||
w: He’ll give thy soul a|place. *|
w: ||
V:2
 x3 E2 x | x3 C3 | x6 | x6 | x6 | x6 | x6 | x6 | x6 | x6 | x6 | x6 | x3 (BDE) | x3 (AEF) | x6 | %15
 E x7 || x6 | (A,2 C) (F_EE) | x6 | x6 | x6 | x3 (G2 B) | x2 A x3 | x6 | x6 | x6 | x6 | x6 | x6 | %29
 x6 | x2 D x3 | x6 |] %32
V:3
 [F,C][F,C][F,C] (DC)[C,B,] | [F,A,]3 [F,A,]3 | [F,A,][F,^G,][F,A,] (A,D)[D,C] | [G,D]3- [G,D]2 z | %4
 [C,C][C,C][C,C] [C,C]2 [E,C] | (B,2 =B,) (C2 D) | [G,D][G,C][G,=B,] [G,C]2 [G,D] | %7
 [C,C]3- [C,C]2 z | [C,B,][C,A,][C,B,] [C,D]2 [C,C] | [F,B,]3 [F,A,]3 | %10
 [F,C][F,=B,][F,C] [D,D]2 [D,D] | [G,D]3- [G,D]2 z | [C,C][C,C][C,C] C2 z | %13
 [F,C][F,A,][F,G,] [F,A,]2 z | G,[G,D][G,C] (=B,A,)[G,B,] | [C,C]4 z2 x2 || (F,,C,F,) G,,E,C, | %17
 (F,,C,F,) (F,,C,F,) | (B,,F,B,) B,,F,B, | (F,,C,F, F,,2) z | (G,,D,G,) G,,D,G, | %21
 (C,G,[G,=B,]) (C,G,C) | [F,C]2 [F,D] [G,E]2 [G,D] | [C,C]4 z2 | (F,,C,F,) G,,E,C, | %25
 (F,,C,E,) (F,,C,E,) | (E,,A,,C,) E,[^G,=B,]E, | (A,,C,E,) A,2 z | (D,A,C) [D,A,C]2 [D,A,C] | %29
 (G,,D,G, G,,3) | [C,G,B,][C,G,B,] z ([C,G,B,][C,G,B,]) z | ([F,,F,]B,,A,, F,,2) z |] %32
V:4
 x3 C,2 x | x6 | x3 D,2 x | x6 | x6 | F,3 F,3 | x6 | x6 | x6 | x6 | x6 | x6 | x3 C2 x | x6 | %14
 G, x G,2 x2 | x8 || x6 | x6 | x6 | x6 | x6 | x6 | x6 | x6 | x6 | x6 | x6 | x6 | x6 | x6 | x6 | %31
 x6 |] %32

